img/asteriskkk.svg

<svg width="116" height="119" viewBox="0 0 116 119" fill="none" xmlns="http://www.w3.org/2000/svg">
<path d="M93.8613 54.2716C95.7674 51.084 99.708 49.5606 103.354 50.8292C105.39 51.5382 107.138 52.1526 108.446 52.6662C109.096 52.921 109.798 53.2133 110.446 53.5353C110.845 53.7333 112.198 54.3943 113.366 55.6163C113.643 55.9057 114.343 56.6658 114.893 57.8341C115.509 59.1457 116.078 61.3249 115.265 63.8117C114.506 66.1286 112.955 67.4343 112.078 68.0285C111.193 68.6281 110.374 68.9309 109.949 69.0724C108.566 69.5327 106.952 69.6611 106.006 69.7365C103.5 69.936 98.9191 70.1237 90.8467 70.382C74.3929 70.9084 44.2335 71.5666 28.3232 72.214C19.6669 72.5662 14.8974 72.7905 12.2012 72.9269C9.80088 73.0484 8.67343 73.1251 8 73.1251C3.58172 73.1251 0 69.5434 0 65.1251C0.000245841 60.7071 3.58187 57.1251 8 57.1251C7.94286 57.1251 7.97068 57.1285 8.60059 57.0949C9.1446 57.0658 10.0133 57.0172 11.3926 56.9474C14.1553 56.8076 18.9796 56.5804 27.6729 56.2267C43.6117 55.5781 74.2554 54.9042 90.335 54.3898C91.6049 54.3492 92.778 54.3084 93.8613 54.2716Z" fill="#FCB414"/>
<path d="M75.1816 0.00380091C79.5975 0.146904 83.0609 3.84287 82.918 8.25868C82.8719 9.6818 82.4549 11.005 81.7656 12.1415C81.6646 12.416 81.5232 12.811 81.3389 13.3563C80.7478 15.1051 79.909 17.7617 78.7744 21.3788C76.5349 28.5186 73.2506 39.0592 68.8184 52.5009C59.7476 85.1993 54.1566 106.063 52.9268 110.414C52.877 110.71 52.8411 111.023 52.8174 111.28C52.8092 111.369 52.8066 111.408 52.7979 111.507C52.7952 111.537 52.7883 111.617 52.7793 111.703C52.7751 111.743 52.7647 111.838 52.749 111.956C52.7412 112.015 52.7269 112.119 52.7051 112.247C52.6897 112.337 52.6403 112.625 52.5439 112.983C52.499 113.151 52.3926 113.528 52.2012 113.987C52.1395 114.135 51.5616 115.645 50.0693 116.944C49.1817 117.717 47.448 118.86 44.9746 118.909C42.4113 118.96 40.5305 117.811 39.4805 116.871C37.8174 115.382 37.286 113.616 37.2422 113.487C36.9559 112.646 36.8813 111.933 36.876 111.891C36.8496 111.678 36.8372 111.509 36.832 111.432C36.8147 111.171 36.8135 110.942 36.8135 110.937C36.8122 110.826 36.8125 110.679 36.8125 110.583C36.8125 110.026 36.8701 109.482 36.9785 108.957C37.0437 108.418 37.1391 107.739 37.2852 107.018C37.329 106.802 37.3818 106.588 37.4434 106.376C38.3519 103.247 43.9105 82.433 53.4502 48.0468C53.4844 47.9235 53.5215 47.8011 53.5615 47.6796C57.9829 34.2766 61.2524 23.7802 63.5078 16.5897C64.6259 13.0251 65.5225 10.1837 66.1816 8.23329C66.5024 7.28429 66.8238 6.37683 67.1221 5.65321C67.254 5.33314 67.4938 4.77017 67.8262 4.1913C67.9713 3.93857 68.337 3.31832 68.9346 2.66103C69.2364 2.32904 69.8071 1.75226 70.6582 1.22157C71.4986 0.697677 73.0741 -0.0644898 75.1816 0.00380091Z" fill="#FCB414"/>
<path d="M22.4678 33.6178C23.5889 33.5635 24.5185 33.7379 24.874 33.8073C25.306 33.8915 25.721 33.9971 25.8711 34.0348C28.813 34.7732 30.9609 37.0533 31.6709 39.7965C32.9604 40.7256 34.6324 41.8549 36.7041 43.194C42.5089 46.9462 50.7018 51.8721 60.6787 57.8864C60.8154 57.9687 60.9496 58.0557 61.0811 58.1461C74.0143 67.0385 80.6518 72.5406 84.71 75.9704C85.5461 76.5716 86.4019 77.1122 87.0508 77.4528C87.0721 77.464 87.0936 77.4729 87.1133 77.4831C90.497 77.9655 93.3179 80.5988 93.8818 84.151C94.5744 88.5145 91.5989 92.6135 87.2354 93.3063C84.9423 93.6703 82.9982 93.0354 82.3037 92.7995C81.3135 92.4631 80.3829 92.0232 79.6143 91.6198C78.055 90.8013 76.442 89.7525 75.0771 88.7526C74.9267 88.6424 74.7801 88.5264 74.6377 88.4059C70.9336 85.2718 64.762 80.1031 52.207 71.4616C42.4337 65.5702 34.0455 60.5272 28.0186 56.6315C24.9984 54.6793 22.3817 52.8948 20.416 51.3551C19.4439 50.5937 18.4542 49.7551 17.6094 48.8766C17.0188 48.2625 15.4559 46.6075 14.8018 44.1891C14.5034 43.0859 13.8811 39.8425 16.2373 36.8141C18.481 33.9307 21.5908 33.6603 22.4678 33.6178ZM29.1416 37.7868C29.1476 37.793 29.1546 37.7997 29.1621 37.8073C29.0508 37.6729 29.0217 37.662 29.1416 37.7868Z" fill="#FCB414"/>
<path d="M52.7681 11.0228C54.9312 12.1387 57.0134 14.3746 57.3257 14.9223C57.4466 15.1653 57.6175 15.5502 57.6733 15.6889C57.7637 15.9194 57.8235 16.1038 57.8374 16.1469C57.8788 16.2748 57.9074 16.3765 57.9136 16.3978C57.9249 16.4371 57.9343 16.4687 57.939 16.4857C57.9681 16.5915 58.0031 16.7319 58.0063 16.7445C58.0401 16.877 58.0974 17.1017 58.1675 17.3793C58.3089 17.9394 58.5131 18.7497 58.7163 19.556C58.8647 20.1452 58.9401 20.7358 58.9546 21.3187C59.4027 23.6548 60.0463 27.1546 60.9604 32.4144C63.1035 44.7452 66.7696 66.9315 68.6665 80.2514C70.5728 93.6369 70.6455 97.8137 70.52 101.293C70.4338 103.683 70.3329 107.804 68.1216 111.234C65.7273 114.947 60.7762 116.016 57.063 113.622C53.527 111.342 52.3899 106.744 54.3569 103.104C54.384 102.933 54.4177 102.676 54.4478 102.294C54.4811 101.871 54.5076 101.359 54.5308 100.717C54.6063 98.6229 54.6793 95.5229 52.8257 82.5072C50.9627 69.4256 47.3294 47.4241 45.1968 35.1537C43.0637 22.8804 42.4945 20.6736 42.4692 20.5707C42.4639 20.5487 42.452 20.5007 42.4409 20.4535C42.4378 20.4405 42.4307 20.4111 42.4224 20.3744C42.4183 20.3564 42.4111 20.3212 42.4019 20.2777C42.3975 20.2573 42.371 20.137 42.3442 19.9838C42.3376 19.9459 42.2914 19.6863 42.2603 19.3549C42.2424 19.1302 42.2274 18.4272 42.2524 17.9496C42.5301 16.4217 47.1979 11.2029 52.7681 11.0228ZM58.0288 16.8471C58.0212 16.8134 58.0153 16.7876 58.0132 16.7787C58.0115 16.7717 58.0095 16.7652 58.0083 16.7601C58.0146 16.7859 58.021 16.8149 58.0288 16.8471Z" fill="#FCB414"/>
</svg>

<svg xmlns="http://www.w3.org/2000/svg" width="116" height="119" fill="none"><path fill="#FCB414" d="M93.861 54.272a8 8 0 0 1 9.493-3.443c2.036.71 3.784 1.324 5.092 1.837a25 25 0 0 1 2 .87c.399.197 1.752.858 2.92 2.08.277.29.977 1.05 1.527 2.218.616 1.312 1.185 3.49.372 5.978a8.17 8.17 0 0 1-3.187 4.216c-.885.6-1.704.903-2.129 1.044-1.383.46-2.997.59-3.943.665-2.506.199-7.087.387-15.16.645-16.453.526-46.613 1.185-62.523 1.832-8.656.352-13.426.576-16.122.713-2.4.121-3.528.198-4.201.198a8 8 0 1 1 0-16c-.057 0-.03.004.6-.03.545-.03 1.413-.078 2.793-.148 2.762-.14 7.587-.367 16.28-.72 15.939-.649 46.582-1.323 62.662-1.837q1.903-.062 3.526-.118"/><path fill="#FCB414" d="M75.182.004a8 8 0 0 1 6.584 12.138c-.101.274-.243.669-.427 1.214-.591 1.75-1.43 4.406-2.565 8.023-2.24 7.14-5.523 17.68-9.956 31.122-9.07 32.698-14.661 53.562-15.891 57.913-.05.296-.086.609-.11.866-.008.089-.01.128-.02.227a9.555 9.555 0 0 1-.093.74 8 8 0 0 1-.503 1.74c-.062.148-.64 1.658-2.132 2.957a8 8 0 0 1-10.589-.073c-1.663-1.489-2.194-3.255-2.238-3.384-.286-.841-.36-1.554-.366-1.596a8 8 0 0 1-.062-.954c-.002-.111-.002-.258-.002-.354 0-.557.058-1.101.166-1.626.066-.539.161-1.218.307-1.939q.066-.324.158-.642c.909-3.129 6.468-23.943 16.007-58.33q.052-.184.111-.366c4.422-13.403 7.691-23.9 9.947-31.09 1.118-3.565 2.014-6.406 2.674-8.357a45 45 0 0 1 .94-2.58c.132-.32.372-.883.704-1.462.145-.252.511-.873 1.109-1.53a8.2 8.2 0 0 1 1.723-1.44A8.06 8.06 0 0 1 75.182.005"/><path fill="#FCB414" d="M22.468 33.618c1.12-.055 2.05.12 2.406.19.432.084.847.19.997.227a8 8 0 0 1 5.8 5.762c1.29.929 2.961 2.058 5.033 3.397 5.805 3.752 13.998 8.678 23.975 14.692q.204.125.402.26c12.933 8.892 19.57 14.395 23.629 17.824.836.602 1.692 1.142 2.34 1.483l.063.03a8 8 0 0 1 6.769 6.668 8 8 0 0 1-6.647 9.155c-2.293.364-4.237-.27-4.931-.507-.99-.336-1.921-.776-2.69-1.18-1.559-.818-3.172-1.867-4.537-2.866a8 8 0 0 1-.44-.347c-3.703-3.134-9.875-8.303-22.43-16.944-9.773-5.892-18.162-10.935-24.188-14.83-3.02-1.953-5.637-3.737-7.603-5.277-.972-.761-1.962-1.6-2.807-2.478-.59-.614-2.153-2.27-2.807-4.688-.299-1.103-.92-4.346 1.435-7.375 2.244-2.883 5.354-3.154 6.23-3.196m6.674 4.169.02.02c-.111-.134-.14-.145-.02-.02"/><path fill="#FCB414" d="M52.768 11.023c2.163 1.116 4.245 3.352 4.558 3.9.12.242.291.627.347.766.09.23.15.415.164.458.042.128.07.23.077.25q.016.062.025.089c.03.105.064.246.067.258l.161.635.55 2.177c.148.59.223 1.18.238 1.763a662 662 0 0 1 2.005 11.095c2.143 12.331 5.81 34.518 7.706 47.837 1.907 13.386 1.98 17.563 1.854 21.042-.086 2.39-.187 6.511-2.398 9.941a8 8 0 0 1-13.765-8.13c.027-.171.06-.428.09-.81.034-.423.06-.935.084-1.577.075-2.094.148-5.194-1.705-18.21-1.863-13.081-5.497-35.083-7.63-47.353-2.132-12.274-2.701-14.48-2.727-14.583l-.028-.118-.019-.079c-.004-.018-.01-.053-.02-.096-.005-.02-.031-.141-.058-.294-.006-.038-.053-.298-.084-.63a15 15 0 0 1-.008-1.404c.278-1.528 4.946-6.747 10.516-6.927m5.26 5.824-.015-.068-.005-.019z"/></svg>
